Dominus_Dark_Funeral/scalable/status/aptdaemon-delete.svg

<svg xmlns="http://www.w3.org/2000/svg" xmlns:xlink="http://www.w3.org/1999/xlink" height="48" width="48"><defs><linearGradient id="a"><stop offset="0"/><stop offset="1" stop-opacity="0"/></linearGradient><linearGradient xlink:href="#a" id="b" gradientUnits="userSpaceOnUse" x1="7.77" y1="28.05" x2="48.09" y2="28.05"/></defs><path d="M23.79 2.44A21.77 21.86 0 0 0 2.02 24.3a21.77 21.86 0 0 0 21.77 21.87A21.77 21.86 0 0 0 45.56 24.3 21.77 21.86 0 0 0 23.79 2.44z" fill="#008080" paint-order="markers fill stroke"/><path d="M21.32 46a21.77 21.86 0 0 0 .93.12 21.77 21.86 0 0 0 1.54.05 21.77 21.86 0 0 0 2.17-.1 21.77 21.86 0 0 0 2.15-.34 21.77 21.86 0 0 0 2.11-.54 21.77 21.86 0 0 0 2.05-.75 21.77 21.86 0 0 0 1.95-.95 21.77 21.86 0 0 0 1.86-1.14 21.77 21.86 0 0 0 1.73-1.32 21.77 21.86 0 0 0 .8-.74l6.3-10.81a21.77 21.86 0 0 0 .33-1.46 21.77 21.86 0 0 0 .26-2.17 21.77 21.86 0 0 0 .06-1.55 21.77 21.86 0 0 0-.11-2.18 21.77 21.86 0 0 0-.13-.84l-8.89-8.9-3.44-.72-10.12-3.34-11.66 5.24L7.77 26.2l4.34 10.58z" opacity=".5" fill="url(#b)"/><path d="M23.9 7.1c-9.43 0-17.1 7.67-17.1 17.1 0 9.43 7.67 17.1 17.1 17.1 9.43 0 17.1-7.67 17.1-17.1 0-9.43-7.67-17.1-17.1-17.1zm0 3.14a13.9 13.9 0 0 1 9.09 3.38L13.31 33.29a13.9 13.9 0 0 1-3.38-9.09c0-7.7 6.27-13.96 13.97-13.96zm11.23 5.67A13.98 13.98 0 0 1 15.6 35.43l19.52-19.52z" fill="#fcffff" paint-order="markers fill stroke"/></svg>

<?xml version="1.0" encoding="UTF-8" standalone="no"?>
<svg
   xmlns:dc="http://purl.org/dc/elements/1.1/"
   xmlns:cc="http://creativecommons.org/ns#"
   xmlns:rdf="http://www.w3.org/1999/02/22-rdf-syntax-ns#"
   xmlns:svg="http://www.w3.org/2000/svg"
   xmlns="http://www.w3.org/2000/svg"
   xmlns:xlink="http://www.w3.org/1999/xlink"
   xmlns:sodipodi="http://sodipodi.sourceforge.net/DTD/sodipodi-0.dtd"
   xmlns:inkscape="http://www.inkscape.org/namespaces/inkscape"
   height="48"
   width="48"
   version="1.1"
   id="svg16"
   sodipodi:docname="aptdaemon-delete.svg"
   inkscape:version="0.92.4 (5da689c313, 2019-01-14)">
  <metadata
     id="metadata20">
    <rdf:RDF>
      <cc:Work
         rdf:about="">
        <dc:format>image/svg+xml</dc:format>
        <dc:type
           rdf:resource="http://purl.org/dc/dcmitype/StillImage" />
        <dc:title></dc:title>
      </cc:Work>
    </rdf:RDF>
  </metadata>
  <sodipodi:namedview
     pagecolor="#ffffff"
     bordercolor="#666666"
     borderopacity="1"
     objecttolerance="10"
     gridtolerance="10"
     guidetolerance="10"
     inkscape:pageopacity="0"
     inkscape:pageshadow="2"
     inkscape:window-width="1112"
     inkscape:window-height="480"
     id="namedview18"
     showgrid="false"
     inkscape:zoom="4.9166667"
     inkscape:cx="2.1355932"
     inkscape:cy="24"
     inkscape:window-x="0"
     inkscape:window-y="25"
     inkscape:window-maximized="0"
     inkscape:current-layer="svg16" />
  <defs
     id="defs8">
    <linearGradient
       id="a">
      <stop
         offset="0"
         id="stop2" />
      <stop
         offset="1"
         stop-opacity="0"
         id="stop4" />
    </linearGradient>
    <linearGradient
       xlink:href="#a"
       id="b"
       gradientUnits="userSpaceOnUse"
       x1="7.77"
       y1="28.05"
       x2="48.09"
       y2="28.05" />
  </defs>
  <path
     d="M 23.79,2.44 A 21.77,21.86 0 0 0 2.02,24.3 21.77,21.86 0 0 0 23.79,46.17 21.77,21.86 0 0 0 45.56,24.3 21.77,21.86 0 0 0 23.79,2.44 Z"
     id="path10"
     inkscape:connector-curvature="0"
     style="fill:#008080;paint-order:markers fill stroke" />
  <path
     d="m 21.32,46 a 21.77,21.86 0 0 0 0.93,0.12 21.77,21.86 0 0 0 1.54,0.05 21.77,21.86 0 0 0 2.17,-0.1 21.77,21.86 0 0 0 2.15,-0.34 21.77,21.86 0 0 0 2.11,-0.54 21.77,21.86 0 0 0 2.05,-0.75 21.77,21.86 0 0 0 1.95,-0.95 21.77,21.86 0 0 0 1.86,-1.14 21.77,21.86 0 0 0 1.73,-1.32 21.77,21.86 0 0 0 0.8,-0.74 l 6.3,-10.81 a 21.77,21.86 0 0 0 0.33,-1.46 21.77,21.86 0 0 0 0.26,-2.17 21.77,21.86 0 0 0 0.06,-1.55 21.77,21.86 0 0 0 -0.11,-2.18 21.77,21.86 0 0 0 -0.13,-0.84 L 36.43,12.38 32.99,11.66 22.87,8.32 11.21,13.56 7.77,26.2 12.11,36.78 Z"
     id="path12"
     style="opacity:0.5;fill:url(#b)"
     inkscape:connector-curvature="0" />
  <path
     d="m 23.9,7.1 c -9.43,0 -17.1,7.67 -17.1,17.1 0,9.43 7.67,17.1 17.1,17.1 C 33.33,41.3 41,33.63 41,24.2 41,14.77 33.33,7.1 23.9,7.1 Z m 0,3.14 a 13.9,13.9 0 0 1 9.09,3.38 L 13.31,33.29 A 13.9,13.9 0 0 1 9.93,24.2 c 0,-7.7 6.27,-13.96 13.97,-13.96 z m 11.23,5.67 A 13.98,13.98 0 0 1 15.6,35.43 L 35.12,15.91 Z"
     id="path14"
     inkscape:connector-curvature="0"
     style="fill:#fcffff;paint-order:markers fill stroke" />
</svg>
